svgs/sharp-light/temperature-list.svg

<svg xmlns="http://www.w3.org/2000/svg" viewBox="0 0 512 512"><!--! Font Awesome Pro 6.6.0 by @fontawesome - https://fontawesome.com License - https://fontawesome.com/license (Commercial License) Copyright 2024 Fonticons, Inc. --><path d="M69.3 284.5L80 275l0-14.3L80 32l128 0 0 228.7 0 14.3 10.7 9.5c23 20.6 37.3 50.3 37.3 83.5c0 61.9-50.1 112-112 112S32 429.9 32 368c0-33.2 14.4-62.9 37.3-83.5zM240 0L208 0 80 0 48 0l0 32 0 228.7C18.5 287.1 0 325.4 0 368c0 79.5 64.5 144 144 144s144-64.5 144-144c0-42.6-18.5-81-48-107.3L240 32l0-32zM112 368a32 32 0 1 1 64 0 32 32 0 1 1 -64 0zm96 0c0-29.8-20.4-54.9-48-62l0-162 0-16-32 0 0 16 0 162c-27.6 7.1-48 32.2-48 62c0 35.3 28.7 64 64 64s64-28.7 64-64zM320 32l0 32 16 0 160 0 16 0 0-32-16 0L336 32l-16 0zm0 128l0 32 16 0 160 0 16 0 0-32-16 0-160 0-16 0zm32 128l0 32 16 0 128 0 16 0 0-32-16 0-128 0-16 0z"/></svg>

<svg xmlns="http://www.w3.org/2000/svg" viewBox="0 0 512 512"><!--! Font Awesome Pro 6.4.0 by @fontawesome - https://fontawesome.com License - https://fontawesome.com/license (Commercial License) Copyright 2023 Fonticons, Inc. --><path d="M69.3 284.5L80 275V260.7 32H208V260.7 275l10.7 9.5c23 20.6 37.3 50.3 37.3 83.5c0 61.9-50.1 112-112 112S32 429.9 32 368c0-33.2 14.4-62.9 37.3-83.5zM240 0H208 80 48V32 260.7C18.5 287.1 0 325.4 0 368c0 79.5 64.5 144 144 144s144-64.5 144-144c0-42.6-18.5-81-48-107.3V32 0zM112 368a32 32 0 1 1 64 0 32 32 0 1 1 -64 0zm96 0c0-29.8-20.4-54.9-48-62V144 128H128v16V306c-27.6 7.1-48 32.2-48 62c0 35.3 28.7 64 64 64s64-28.7 64-64zM320 32V64h16H496h16V32H496 336 320zm0 128v32h16H496h16V160H496 336 320zm32 128v32h16H496h16V288H496 368 352z"/></svg>
